X: 1
T: a Fig for a Kiss
R: slipjig
D: "Dance Across the Sea: Dances and Airs from the Celtic Highlands" North Star Records NS 0031
Z: 2006 John Chambers <jc@trillian.mit.edu>
M: 9/8
L: 1/8
K: Edor
F | "Em"G2B E2B BAG | "D"F2A D2F AGF | "Em"G2B    E2G  BA[BG] | "G"BdB  "D" AGF "Em"E2 :|
f | "Em"g2e g2e edB | "D"f2d dcd fed | "Em"g2e    g2e    edB  | "G"dBG "(D)"GBd "Em"e2 |]
f | "Em"g2e g2e edB | "D"f2d dcd fed | "Em"gfe "D"fed "C"ed=c | "G"BdB  "D" AGF "Em"E2 |]
